docs/public/img/adapters/dgraph.svg

<?xml version="1.0" encoding="UTF-8"?>
<svg width="256px" height="305px" viewBox="0 0 256 305" version="1.1" xmlns="http://www.w3.org/2000/svg" xmlns:xlink="http://www.w3.org/1999/xlink"  preserveAspectRatio="xMidYMid">
    <title>Dgraph</title>
    <defs>
        <linearGradient x1="0%" y1="50%" x2="100%" y2="50%" id="linearGradient-1">
            <stop stop-color="#FF1800" offset="0%"></stop>
            <stop stop-color="#FF009B" offset="100%"></stop>
        </linearGradient>
    </defs>
    <g>
        <path d="M206.7212,54.8100766 C209.704405,49.3695192 211.271852,43.2615328 211.271852,37.0524208 C211.238446,16.6027868 194.669065,0.033405404 174.219431,0 C157.190249,0.0206371912 142.360177,11.6278679 138.249054,28.1533677 L128.005031,27.7488653 C57.3185125,27.7600304 0.0169924191,85.0570234 5.60830465e-05,155.74354 C-0.0402073001,189.145327 13.0252205,221.242593 36.3852347,245.118348 C31.5312058,251.529711 28.9221652,259.336608 28.9322778,267.365981 C28.9656831,287.815615 45.5350646,304.384997 65.9846986,304.418401 C81.6389418,304.418401 95.1392098,294.588993 100.519092,280.75501 C109.544229,282.730648 118.756074,283.727441 127.994918,283.728103 C198.685384,283.716936 255.988539,226.413782 255.999878,155.723315 C256.045473,116.284635 237.854513,79.0403911 206.7212,54.8303017 L206.7212,54.8100766 Z M174.209318,59.7955688 C172.271617,59.796266 170.341625,59.5516192 168.465384,59.0674644 L153.094293,103.663855 L175.544176,100.003108 L143.9222,151.536715 L170.235082,145.145577 L81.6288293,250.791494 C90.0515127,258.867516 90.9994661,272.006144 83.8233565,281.207621 C76.6472468,290.409097 63.6735093,292.690382 53.7889509,286.488832 C43.9339578,280.206748 40.4408788,267.480194 45.7081329,257.047481 C50.9753871,246.614768 63.2898226,241.869091 74.1960975,246.068929 L99.3055846,191.28919 L74.8028511,197.923029 L114.646339,140.888189 L90.1537176,146.81415 L159.596669,54.3550114 C152.285342,48.2063257 149.593422,38.145314 152.857404,29.1671036 C156.121386,20.1888932 164.646116,14.2056364 174.199206,14.187922 C186.761537,14.187922 196.946883,24.3687406 196.952466,36.93107 C196.952466,49.4934008 186.771648,59.6787475 174.209318,59.6843306 L174.209318,59.7955688 Z" fill="url(#linearGradient-1)"></path>
    </g>
</svg>

<svg xmlns="http://www.w3.org/2000/svg" xmlns:xlink="http://www.w3.org/1999/xlink" preserveAspectRatio="xMidYMid" viewBox="0 0 256 305"><defs><linearGradient id="a" x1="0%" x2="100%" y1="50%" y2="50%"><stop offset="0%" stop-color="#FF1800"/><stop offset="100%" stop-color="#FF009B"/></linearGradient></defs><path fill="url(#a)" d="M206.72 54.81a36.94 36.94 0 0 0 4.55-17.76A37.11 37.11 0 0 0 174.22 0a37.11 37.11 0 0 0-35.97 28.15l-10.24-.4C57.3 27.76 0 85.05 0 155.75a127.6 127.6 0 0 0 36.39 89.37 36.76 36.76 0 0 0-7.46 22.25 37.11 37.11 0 0 0 37.05 37.05 37.15 37.15 0 0 0 34.54-23.66 128.53 128.53 0 0 0 27.47 2.97c70.7-.01 128-57.32 128.01-128a127.62 127.62 0 0 0-49.28-100.9v-.02Zm-32.51 4.99a23.1 23.1 0 0 1-5.74-.73l-15.38 44.6 22.45-3.67-31.62 51.54 26.32-6.4L81.63 250.8a22.75 22.75 0 0 1-27.84 35.7 22.75 22.75 0 0 1 20.4-40.42l25.12-54.78-24.5 6.63 39.84-57.03-24.5 5.92 69.45-92.45a22.75 22.75 0 0 1 14.6-40.17 22.75 22.75 0 0 1 0 45.5v.1Z"/></svg>
